icons/nodemon.svg

<svg width="16" height="16" viewBox="0 0 16 16" fill="none" xmlns="http://www.w3.org/2000/svg">
<path fill-rule="evenodd" clip-rule="evenodd" d="M8.34372 13.9239C8.16813 14.0254 7.95155 14.0254 7.77597 13.9239L3.07327 11.2095C2.89741 11.1081 2.7891 10.9206 2.7891 10.7178V5.28469C2.7891 5.08173 2.89741 4.89425 3.07315 4.79264L7.77566 2.07612C7.95155 1.97463 8.16813 1.97463 8.34407 2.07612L13.0478 4.79264C13.2234 4.89429 13.3317 5.08169 13.3317 5.28469V10.7175C13.3317 10.9206 13.2234 11.1081 13.0475 11.2096L8.34372 13.9239ZM10.8959 6.5843L11.1056 6.70502C11.2129 6.76634 11.2782 6.88028 11.2783 7.00474L11.2728 11.4302C11.2728 11.492 11.2397 11.5492 11.1871 11.5793C11.1343 11.6112 11.0678 11.6112 11.0146 11.5793L9.31773 10.6074C9.21099 10.5445 9.14482 10.4311 9.14482 10.3081V8.24059C9.14482 8.11735 9.07928 8.00301 8.97231 7.94196L8.24982 7.52577C8.19747 7.49446 8.13702 7.47922 8.07822 7.47922C8.01807 7.47922 7.95915 7.49446 7.90531 7.52581L7.18258 7.942C7.07565 8.00309 7.01035 8.11739 7.01035 8.24067V10.3081C7.01035 10.4311 6.94505 10.5437 6.83764 10.6075L5.14035 11.5794C5.0875 11.6113 5.02196 11.6113 4.96902 11.5794C4.91483 11.5493 4.88285 11.4921 4.88285 11.4304L4.87655 7.00486C4.87655 6.88048 4.94279 6.76646 5.04933 6.70505L5.25906 6.5843C4.93657 6.10848 4.7435 5.39315 4.98533 4.32375C4.98533 4.32375 5.52984 5.84944 6.62393 5.79875L7.90527 5.06145C7.95427 5.03281 8.00834 5.01804 8.06297 5.01576H8.09251C8.14726 5.018 8.20141 5.03277 8.24974 5.06145L9.53096 5.79875C10.6252 5.84928 11.1695 4.32375 11.1695 4.32375C11.4112 5.39319 11.2184 6.10852 10.8959 6.5843Z" fill="#76D04B"/>
</svg>

<svg xmlns="http://www.w3.org/2000/svg" width="16" height="16" fill="none"><path fill="#76D04B" fill-rule="evenodd" d="M8.344 13.924a.567.567 0 0 1-.568 0L3.073 11.21a.568.568 0 0 1-.284-.492V5.285c0-.203.108-.39.284-.492l4.703-2.717a.569.569 0 0 1 .568 0l4.704 2.717c.175.101.284.289.284.492v5.432c0 .204-.109.391-.285.493l-4.703 2.714Zm2.552-7.34.21.121a.344.344 0 0 1 .172.3l-.005 4.425a.172.172 0 0 1-.258.15l-1.697-.973a.348.348 0 0 1-.173-.299V8.241a.344.344 0 0 0-.173-.299l-.722-.416a.336.336 0 0 0-.345 0l-.722.416a.344.344 0 0 0-.173.299v2.067a.348.348 0 0 1-.172.3l-1.698.971a.165.165 0 0 1-.171 0 .17.17 0 0 1-.086-.149l-.006-4.425c0-.125.066-.239.172-.3l.21-.12c-.322-.477-.516-1.192-.274-2.261 0 0 .545 1.525 1.639 1.475l1.281-.738a.34.34 0 0 1 .158-.045h.03a.334.334 0 0 1 .157.045L9.53 5.8c1.094.05 1.638-1.475 1.638-1.475.242 1.07.05 1.785-.273 2.26Z" clip-rule="evenodd"/></svg>
